Desktop/project_createx/public/images/About/manage.svg

<svg width="48" height="48" viewBox="0 0 48 48" fill="none" xmlns="http://www.w3.org/2000/svg">
<g clip-path="url(#clip0_16400_2201)">
<path d="M28.5533 12.3778H28.1674C29.0456 11.3914 29.5805 10.093 29.5805 8.6715V6.69919V5.78672V5.58141C29.5805 2.50378 27.0769 0 23.9993 0C20.9218 0 18.4181 2.50378 18.4181 5.58131V5.78662V6.69909V8.6715C18.4181 10.0929 18.953 11.3913 19.8312 12.3778H19.4453C15.6199 12.3778 12.5078 15.4899 12.5078 19.3153V24C12.5078 24.5178 12.9275 24.9375 13.4453 24.9375H34.5533C35.071 24.9375 35.4908 24.5178 35.4908 24V19.3153C35.4908 15.4899 32.3787 12.3778 28.5533 12.3778ZM23.9993 1.875C25.8583 1.875 27.4021 3.25078 27.6658 5.03766L26.0115 4.06575C25.6167 3.83372 25.1121 3.92109 24.818 4.27191C24.0247 5.21869 22.8614 5.76159 21.6261 5.76159H20.2931V5.58131C20.2931 3.53766 21.9557 1.875 23.9993 1.875ZM20.2931 7.63669H21.6261C23.1472 7.63669 24.5931 7.06894 25.6993 6.057L27.7055 7.23572V8.67159C27.7055 10.7153 26.043 12.3779 23.9993 12.3779C21.9557 12.3779 20.2931 10.7152 20.2931 8.67159V7.63669V7.63669ZM33.6158 23.0625H14.3828V19.3153C14.3828 16.5238 16.6539 14.2528 19.4453 14.2528H23.0618V16.125C23.0618 16.6428 23.4816 17.0625 23.9993 17.0625C24.517 17.0625 24.9368 16.6428 24.9368 16.125V14.2528H28.5533C31.3447 14.2528 33.6158 16.5238 33.6158 19.3153V23.0625Z" fill="#7772F1"/>
<path d="M14.4375 37.3928H13.1442C13.6368 36.6862 13.9268 35.8283 13.9268 34.9036V34.0469C13.9268 31.6404 11.969 29.6826 9.5625 29.6826C7.15603 29.6826 5.19825 31.6404 5.19825 34.0469V34.9036C5.19825 35.8283 5.48822 36.6862 5.98078 37.3928H4.6875C2.10281 37.3928 0 39.4956 0 42.0803V47.0621C0 47.5799 0.419813 47.9996 0.9375 47.9996H18.1875C18.7052 47.9996 19.125 47.5799 19.125 47.0621V42.0803C19.125 39.4956 17.0222 37.3928 14.4375 37.3928ZM7.07325 34.0469C7.07325 32.6743 8.18991 31.5576 9.5625 31.5576C10.9351 31.5576 12.0518 32.6743 12.0518 34.0469V34.9036C12.0518 36.2762 10.9351 37.3928 9.5625 37.3928C8.18991 37.3928 7.07325 36.2762 7.07325 34.9036V34.0469V34.0469ZM17.25 46.1246H1.875V42.0803C1.875 40.5295 3.13669 39.2678 4.6875 39.2678H8.625V41.1559C8.625 41.6736 9.04481 42.0934 9.5625 42.0934C10.0802 42.0934 10.5 41.6736 10.5 41.1559V39.2678H14.4375C15.9883 39.2678 17.25 40.5295 17.25 42.0803V46.1246Z" fill="#7772F1"/>
<path d="M43.3125 37.3928H42.0192C42.5118 36.6862 42.8018 35.8283 42.8018 34.9036V34.0469C42.8018 31.6404 40.844 29.6826 38.4375 29.6826C36.031 29.6826 34.0732 31.6404 34.0732 34.0469V34.9036C34.0732 35.8283 34.3632 36.6862 34.8558 37.3928H33.5625C30.9778 37.3928 28.875 39.4956 28.875 42.0803V47.0621C28.875 47.5799 29.2948 47.9996 29.8125 47.9996H47.0625C47.5802 47.9996 48 47.5799 48 47.0621V42.0803C48 39.4956 45.8972 37.3928 43.3125 37.3928ZM35.9482 34.0469C35.9482 32.6743 37.0649 31.5576 38.4375 31.5576C39.8101 31.5576 40.9268 32.6743 40.9268 34.0469V34.9036C40.9268 36.2762 39.8101 37.3928 38.4375 37.3928C37.0649 37.3928 35.9482 36.2762 35.9482 34.9036V34.0469ZM46.125 46.1246H30.75V42.0803C30.75 40.5295 32.0117 39.2678 33.5625 39.2678H37.5V41.1559C37.5 41.6736 37.9198 42.0934 38.4375 42.0934C38.9552 42.0934 39.375 41.6736 39.375 41.1559V39.2678H43.3125C44.8633 39.2678 46.125 40.5295 46.125 42.0803V46.1246Z" fill="#7772F1"/>
<path d="M29.8482 36.5558L24.9384 31.646V27.7031C24.9384 27.1853 24.5185 26.7656 24.0009 26.7656C23.4832 26.7656 23.0634 27.1853 23.0634 27.7031V31.646L18.1535 36.5558C17.7874 36.9219 17.7874 37.5156 18.1535 37.8818C18.5197 38.2479 19.1131 38.2479 19.4794 37.8818L24.0009 33.3601L28.5223 37.8817C28.7054 38.0648 28.9453 38.1563 29.1852 38.1563C29.4251 38.1563 29.6651 38.0648 29.8482 37.8817C30.2143 37.5156 30.2143 36.9219 29.8482 36.5558Z" fill="#7772F1"/>
<path d="M24.6627 19.0716C24.4884 18.8972 24.2466 18.7969 24 18.7969C23.7534 18.7969 23.5116 18.8972 23.3372 19.0716C23.1628 19.2459 23.0625 19.4878 23.0625 19.7344C23.0625 19.9809 23.1627 20.2228 23.3372 20.3972C23.5117 20.5716 23.7534 20.6719 24 20.6719C24.2466 20.6719 24.4884 20.5716 24.6627 20.3972C24.8371 20.2228 24.9375 19.9809 24.9375 19.7344C24.9375 19.4878 24.8372 19.2459 24.6627 19.0716Z" fill="#7772F1"/>
</g>
<defs>
<clipPath id="clip0_16400_2201">
<rect width="48" height="48" fill="white"/>
</clipPath>
</defs>
</svg>

<svg xmlns="http://www.w3.org/2000/svg" width="48" height="48" fill="none"><g fill="#7772F1" clip-path="url(#a)"><path d="M28.553 12.378h-.386a5.56 5.56 0 0 0 1.413-3.706V5.58A5.59 5.59 0 0 0 24 0a5.59 5.59 0 0 0-5.582 5.581v3.091c0 1.42.535 2.72 1.413 3.706h-.386a6.945 6.945 0 0 0-6.937 6.937V24c0 .518.42.938.937.938h21.108c.518 0 .938-.42.938-.938v-4.685a6.945 6.945 0 0 0-6.938-6.937M24 1.875a3.71 3.71 0 0 1 3.667 3.163l-1.654-.972a.94.94 0 0 0-1.194.206 4.15 4.15 0 0 1-3.192 1.49h-1.333v-.18A3.71 3.71 0 0 1 24 1.874m-3.706 5.762h1.333a6.02 6.02 0 0 0 4.073-1.58l2.006 1.179v1.436A3.71 3.71 0 0 1 24 12.378a3.71 3.71 0 0 1-3.706-3.706zm13.323 15.426H14.383v-3.748a5.07 5.07 0 0 1 5.062-5.062h3.617v1.872a.938.938 0 0 0 1.875 0v-1.872h3.616a5.07 5.07 0 0 1 5.063 5.062zM14.438 37.393h-1.294a4.34 4.34 0 0 0 .783-2.49v-.856a4.37 4.37 0 0 0-4.364-4.364 4.37 4.37 0 0 0-4.365 4.364v.857c0 .924.29 1.782.783 2.489H4.688A4.693 4.693 0 0 0 0 42.08v4.982c0 .518.42.938.938.938h17.25c.517 0 .937-.42.937-.938V42.08a4.693 4.693 0 0 0-4.687-4.687m-7.365-3.346a2.49 2.49 0 0 1 2.49-2.49 2.49 2.49 0 0 1 2.489 2.49v.857a2.49 2.49 0 0 1-2.49 2.489 2.49 2.49 0 0 1-2.489-2.49zM17.25 46.125H1.875V42.08a2.816 2.816 0 0 1 2.813-2.812h3.937v1.888a.938.938 0 0 0 1.875 0v-1.888h3.938a2.816 2.816 0 0 1 2.812 2.812zM43.313 37.393h-1.294a4.34 4.34 0 0 0 .783-2.49v-.856a4.37 4.37 0 0 0-4.364-4.364 4.37 4.37 0 0 0-4.365 4.364v.857c0 .924.29 1.782.783 2.489h-1.294a4.693 4.693 0 0 0-4.687 4.687v4.982c0 .518.42.938.938.938h17.25c.517 0 .937-.42.937-.938V42.08a4.693 4.693 0 0 0-4.687-4.687m-7.365-3.346a2.49 2.49 0 0 1 2.49-2.49 2.49 2.49 0 0 1 2.489 2.49v.857a2.49 2.49 0 0 1-2.49 2.489 2.49 2.49 0 0 1-2.489-2.49zm10.177 12.078H30.75V42.08a2.816 2.816 0 0 1 2.813-2.812H37.5v1.888a.938.938 0 0 0 1.875 0v-1.888h3.938a2.816 2.816 0 0 1 2.812 2.812zM29.848 36.556l-4.91-4.91v-3.943a.938.938 0 0 0-1.875 0v3.943l-4.91 4.91a.938.938 0 0 0 1.326 1.326l4.522-4.522 4.521 4.522a.934.934 0 0 0 1.326 0 .94.94 0 0 0 0-1.326"/><path d="M24.663 19.072a.94.94 0 0 0-.663-.275c-.247 0-.488.1-.663.275a.94.94 0 0 0-.274.662c0 .247.1.489.274.663a.95.95 0 0 0 .663.275c.247 0 .488-.1.663-.275a.95.95 0 0 0 .274-.663c0-.246-.1-.488-.274-.662"/></g><defs><clipPath id="a"><path fill="#fff" d="M0 0h48v48H0z"/></clipPath></defs></svg>
